X:091 
T:Julia Clifford['s] (polka)
B:CRE5.101 (Síle Ui Chlúmháin)
F:file ID: cre.5/091julia_c
L:1/8
M:2/4
Q:120
R:polka
K:D
D|Ad f/e/d/c/|dF A>d|cB Gc/B/|AD F2|
Ad f/e/d/c/|dF A>d|cB GE|ED D:|
|:e|fd de/d/|cA BA|B2 c>B|Af/g/ a2|
ad de/d/|cA BA|B2 c/B/A/c/|1 edd:|\
[2 edd2-|d4|]

